svg/Frame.svg

<svg width="64" height="64" viewBox="0 0 64 64" fill="none" xmlns="http://www.w3.org/2000/svg"><g filter="url(#filter0_d_1970_14250)"><rect x="-207.504" y="-223.584" width="479" height="590.575" rx="15.5" stroke="#D9D9D9"/><circle cx="31.9961" cy="32.416" r="162.5" fill="#FEF3D2"/><path fill-rule="evenodd" clip-rule="evenodd" d="M6.58203 13.3308C6.58203 11.8583 7.76004 10.6646 9.21318 10.6646H53.9428C55.396 10.6646 56.5739 11.8583 56.5739 13.3308V50.6581C56.5739 52.1306 55.396 53.3243 53.9428 53.3243H9.21318C7.76004 53.3243 6.58203 52.1306 6.58203 50.6581V13.3308Z" stroke="#FFE9A4" stroke-width="3" stroke-linecap="round" stroke-linejoin="round"/><path fill-rule="evenodd" clip-rule="evenodd" d="M19.0749 23.9959C20.1648 23.9959 21.0483 23.1006 21.0483 21.9963C21.0483 20.8919 20.1648 19.9966 19.0749 19.9966C17.9851 19.9966 17.1016 20.8919 17.1016 21.9963C17.1016 23.1006 17.9851 23.9959 19.0749 23.9959Z" stroke="#FFE9A4" stroke-width="2" stroke-linecap="round" stroke-linejoin="round"/><path d="M19.7378 31.994L26.3157 37.3265L34.2091 27.9946L56.5739 45.3252V50.6576C56.5739 52.1302 55.396 53.3239 53.9428 53.3239H9.21318C7.76004 53.3239 6.58203 52.1302 6.58203 50.6576V45.3252L19.7378 31.994Z" stroke="#FFE9A4" stroke-width="3" stroke-linejoin="round"/></g><defs><filter id="filter0_d_1970_14250" x="-236.004" y="-248.084" width="536" height="647.575" filterUnits="userSpaceOnUse" color-interpolation-filters="sRGB"><feFlood flood-opacity="0" result="BackgroundImageFix"/><feColorMatrix in="SourceAlpha" type="matrix" values="0 0 0 0 0 0 0 0 0 0 0 0 0 0 0 0 0 0 127 0" result="hardAlpha"/><feOffset dy="4"/><feGaussianBlur stdDeviation="14"/><feComposite in2="hardAlpha" operator="out"/><feColorMatrix type="matrix" values="0 0 0 0 0 0 0 0 0 0 0 0 0 0 0 0 0 0 0.1 0"/><feBlend mode="normal" in2="BackgroundImageFix" result="effect1_dropShadow_1970_14250"/><feBlend mode="normal" in="SourceGraphic" in2="effect1_dropShadow_1970_14250" result="shape"/></filter></defs></svg>

<svg fill="none" viewBox="0 0 64 64"><g filter="url(#a)"><rect width="479" height="590.575" x="-207.504" y="-223.584" stroke="#D9D9D9" rx="15.5"/><circle cx="31.996" cy="32.416" r="162.5" fill="#FEF3D2"/><path stroke="#FFE9A4" stroke-linecap="round" stroke-linejoin="round" stroke-width="3" d="M6.582 13.33c0-1.472 1.178-2.665 2.631-2.665h44.73c1.453 0 2.63 1.193 2.63 2.666v37.327c0 1.473-1.177 2.666-2.63 2.666H9.213c-1.453 0-2.631-1.193-2.631-2.666z" clip-rule="evenodd"/><path stroke="#FFE9A4" stroke-linecap="round" stroke-linejoin="round" stroke-width="2" d="M19.075 23.996c1.09 0 1.973-.895 1.973-2s-.883-2-1.973-2-1.973.896-1.973 2 .883 2 1.973 2" clip-rule="evenodd"/><path stroke="#FFE9A4" stroke-linejoin="round" stroke-width="3" d="m19.738 31.994 6.578 5.333 7.893-9.332 22.365 17.33v5.333c0 1.472-1.178 2.666-2.631 2.666H9.213c-1.453 0-2.631-1.194-2.631-2.666v-5.333z"/></g><defs><filter id="a" width="536" height="647.575" x="-236.004" y="-248.084" color-interpolation-filters="sRGB" filterUnits="userSpaceOnUse"><feFlood flood-opacity="0" result="BackgroundImageFix"/><feColorMatrix in="SourceAlpha" result="hardAlpha" type="matrix" values="0 0 0 0 0 0 0 0 0 0 0 0 0 0 0 0 0 0 127 0"/><feOffset dy="4"/><feGaussianBlur stdDeviation="14"/><feComposite in2="hardAlpha" operator="out"/><feColorMatrix type="matrix" values="0 0 0 0 0 0 0 0 0 0 0 0 0 0 0 0 0 0 0.1 0"/><feBlend in2="BackgroundImageFix" mode="normal" result="effect1_dropShadow_1970_14250"/><feBlend in="SourceGraphic" in2="effect1_dropShadow_1970_14250" mode="normal" result="shape"/></filter></defs></svg>
